logos/cocacola.svg

<svg viewBox="0 225 1024 336" fill="#e61a27" xmlns="http://www.w3.org/2000/svg">
 <path d="m229 309c-45.5-21-153.5 117.5-111.7 159.2 26 22 79.1-35.4 105.8-87.7 6.3 0 12.1-1.1 16.3-2.7-51.1 77.8-0.1 140.3 77.1 52-19 63.3 35.6 45.8 55.6 17.2 0 0-4.5 25.3 13 25.3 34.5 0 87.6-82 87.6-82h-11.1c-42.6 60.8-59 54.7-49 37.3s67.3-116.7 67.3-116.7h-32.4l-3.8 6.1c-19-32.5-69 17.5-85.8 42.6s-44.9 58-44.9 58c-34.7 39.8-54.2 33.5-56.4 19.8-5.5-35.5 47.3-96.3 47.3-96.3 26.2-27.3 39.3-19.5 34.5-6.4-43.8 10.3-13.4 59.2 6.4 12 20-47.3-31.1-55.3-73.4-6.5-24.8 26-32.6 29.5-43.6 29.5 12.9-28.6 16.3-53.7 1-60.7zm208 18.5s-35.3 63-44.7 77.4-26.6 39.8-37.4 34.8c-17.1-7.7 68.9-145.7 82.1-112.2zm-283.6 111.2c-17.6-14.8 12-56.8 25-75.4 1.4-2 2.7-4 4.1-6 5.1 13.6 17.7 20 30.3 22.1-18.4 34-48.1 68.2-59.4 59.3zm64.6-69.6c-13.8-1.7-29.3-8-24.5-27.6 10.1-13.8 19-22.7 28.3-19 10.4 5.5 6.4 24.9-3.8 46.6"/>
 <path d="m533 310h-31l-17 29h31"/>
 <path d="m317.7 497c-71 0-156.5 37.5-213 37.5-93.5 0-79.6-131.7 49-260.3 45-45 77.3-37.8 68-16.8-42.5 5-22 65.5 6.7 16.5 26.4-45-24-82.4-121.6 0-132.5 112.1-140.5 279.3-29.8 279.3 38 0 90-18.3 124.3-25.2 21.6-4.4 91.5-21 121.2 31 15-27.7 64.8-33.2 121 2.2-53.2-56.8-93.7-64.2-125.8-64.2zm581.1-212.5c-8 9.2-16 18.6-23.4 28.4 69.6 12.4 124.2-40.3 148.4-85.6-40.1 43.3-94.8 62.7-125 57.2zm-361.4 207c8-9.2 24.3-23.6 42.7-32.5 14-64.2 70.3-77.7 34.3 2.2-33.4 62.5-70 74.4-86.5 64.3-39.5-26.2 12-123.4 42.7-169.3 31.8-42.6 98.5-122.8 140.2-112.7-69 47.6-86 103-64.8 115 20.6 11.8 82.8-40 81.5-109.5 12.4-6.6 37.7 5 37.7 5 19.8 6.6 62 39 76.2 45 7-8 18.3-20.2 24.8-26.3 0 0-40-23.4-55.4-32-35.2-19.2-63.8-12.5-78.4-7.2-5.7 2-11 3.8-11 3.8-76.4-63-317.8 217-236 303 53 50.6 132.4-45.4 146-94.3 31.2-97.8-83-64-94 45.5zm113.2-143.5c-17.8-16.4 36-82.4 66.6-95.5 5.6 42.5-50.4 108.9-66.6 95.5zm311.4 44.8h-32.8c-1.6 2.6-5 8.4-5 8.4-23.2-36.4-69.8 12.3-117 85.7 0 0-21.4 35.3-33.2 38-9.3 0.8-8.3-11.7-8-14.6 3.6-21 12-41 20.3-59 32-21.5 94-76.7 129.5-131.6 0 0-5 1-11 1.2-29.5 41-89.8 101-108 109.8 45.6-86 75.5-126 110-161.7s48-33 25 8.3c0 0 7-1.3 11.6-2.8 25 -42.6 1 -57.7 -38.8 -27.4c-49.8 37.3-111.6 110.9-155.1 206.7-3.2 2.4-15.6 5.3-17.7 4 19-36.8 15.8-61.3 4.4-66.4-45.8-19.4-112.5 84-119 129-6 44.2 40.7 63.6 109.4-52.2 0.7 0 11.3-0.3 17.6-2.2-14.7 43-20.2 67.8-9.7 81 15 18.6 40-0.7 60.4-26-4.4 30.5 15 53.7 60 6.8-8.4 44 41.6 38.3 100.8-58h-11c-11 21-32.3 42.4-37.8 47-13.2 11.5-17.5 5.5-11.5-5.7 6.6-13.7 66.6-118.3 66.6-118.3zm-304.2 126.2c-11.2-13.7 17-59.5 31-77.5 5.8 12.8 19 21 27 24.5-9.8 22-44.1 70-58 53zm63.8-63c-68.2-26 51.1-103 0 0zm115.9 66c-11.8-5 15-67.6 58-107.6 8-8.3 26.2-10.3 21.4-0.8-7 11.2-13.5 23-20 34-12.3 22.4-43.2 81.2-59.4 74.4"/>
</svg>

<svg viewBox="0 225 1024 336" fill="#e61a27" xmlns="http://www.w3.org/2000/svg">
 <path d="M229,309 c-45.5-21-153.5,117.5-111.7,159.2 c26,22,79.1-35.4,105.8-87.7c6.3,0,12.1-1.1,16.3-2.7c-51.1,77.8-0.1,140.3,77.1,52c-19,63.3,35.6,45.8,55.6,17.2c0,0-4.5,25.3,13,25.3c34.5,0,87.6-82,87.6-82h-11.1c-42.6,60.8-59,54.7-49,37.3c10-17.4,67.3-116.7,67.3-116.7h-32.4l-3.8,6.1c-19-32.5-69,17.5-85.8,42.6S313,417.6,313,417.6c-34.7,39.8-54.2,33.5-56.4,19.8c-5.5-35.5,47.3-96.3,47.3-96.3c26.2-27.3,39.3-19.5,34.5-6.4c-43.8,10.3-13.4,59.2,6.4,12c20-47.3-31.1-55.3-73.4-6.5c-24.8,26-32.6,29.5-43.6,29.5h0C240.7,341.1,244.1,316,228.8,309z M437,327.5 c0,0-35.3,63-44.7,77.4c-9.4,14.4-26.6,39.8-37.4,34.8C337.8,432,423.8,294,437,327.5z M153.4,438.7 c-17.6-14.8,12-56.8,25-75.4c1.4-2,2.7-4,4.1-6c5.1,13.6,17.7,20,30.3,22.1C194.4,413.4,164.7,447.6,153.4,438.7z M218,369.1 c-13.8-1.7-29.3-8-24.5-27.6c10.1-13.8,19-22.7,28.3-19C232.2,328,228.2,347.4,218,369.1"/>
 <path d="M533,310 H502L485,339H516"/>
 <path d="M317.7,497c-71,0-156.5,37.5-213,37.5c-93.5,0-79.6-131.7,49-260.3c45-45,77.3-37.8,68-16.8 c-42.5,5-22,65.5,6.7,16.5c26.4-45-24-82.4-121.6,0C-25.7,386-33.7,553.2,77,553.2c38,0,90-18.3,124.3-25.2 c21.6-4.4,91.5-21,121.2,31c15-27.7,64.8-33.2,121,2.2C390.3,504.4,349.8,497,317.7,497z M898.8,284.5c-8,9.2-16,18.6-23.4,28.4c69.6,12.4,124.2-40.3,148.4-85.6C983.7,270.6,929,290,898.8,284.5z M537.4,491.5c8-9.2,24.3-23.6,42.7-32.5c14-64.2,70.3-77.7,34.3,2.2c-33.4,62.5-70,74.4-86.5,64.3c-39.5-26.2,12-123.4,42.7-169.3c31.8-42.6,98.5-122.8,140.2-112.7c-69,47.6-86,103-64.8,115c20.6,11.8,82.8-40,81.5-109.5 c12.4-6.6,37.7,5,37.7,5c19.8,6.6,62,39,76.2,45c7-8,18.3-20.2,24.8-26.3c0,0-40-23.4-55.4-32 c-35.2-19.2-63.8-12.5-78.4-7.2c-5.7,2-11,3.8-11,3.8c-76.4-63-317.8,217-236,303c53,50.6,132.4-45.4,146-94.3 C662.6,348.2,548.4,382,537.4,491.5z M650.6,348c-17.8-16.4,36-82.4,66.6-95.5C722.8,295,666.8,361.4,650.6,348z M962,392.8h-32.8c-1.6,2.6-5,8.4-5,8.4c-23.2-36.4-69.8,12.3-117,85.7c0,0-21.4,35.3-33.2,38 c-9.3,0.8-8.3-11.7-8-14.6c3.6-21,12-41,20.3-59c32-21.5,94-76.7,129.5-131.6c0,0-5,1-11,1.2 c-29.5,41-89.8,101-108,109.8c45.6-86,75.5-126,110-161.7s48-33,25,8.3c0,0,7-1.3,11.6-2.8 c25-42.6,1-57.7-38.8-27.4C854.8,284.4,793,358,749.5,453.8c-3.2,2.4-15.6,5.3-17.7,4c19-36.8,15.8-61.3,4.4-66.4 c-45.8-19.4-112.5,84-119,129c-6,44.2,40.7,63.6,109.4-52.2c0.7-0,11.3-0.3,17.6-2.2c-14.7,43-20.2,67.8-9.7,81 c15,18.6,40-0.7,60.4-26c-4.4,30.5,15,53.7,60,6.8c-8.4,44,41.6,38.3,100.8-58h-11c-11,21-32.3,42.4-37.8,47 c-13.2,11.5-17.5,5.5-11.5-5.7C902,497.4,962,392.8,962,392.8z M657.8,519c-11.2-13.7,17-59.5,31-77.5h0 c5.8,12.8,19,21,27,24.5C706,488,671.7,536,657.8,519z M721.6,456C653.4,430,772.7,353,721.6,456L721.6,456z M837.5,522c-11.8-5,15-67.6,58-107.6c8-8.3,26.2-10.3,21.4-0.8c-7,11.2-13.5,23-20,34 C884.6,470,853.7,528.8,837.5,522"/>
</svg>
